frontend/src/assets/icons/calendar_today-24px.svg

<svg id="calendar_today-24px" xmlns="http://www.w3.org/2000/svg" width="24" height="24" viewBox="0 0 24 24">
  <path id="Path_471" data-name="Path 471" d="M0,0H24V24H0Z" fill="none"/>
  <path id="Path_472" data-name="Path 472" d="M20,3H19V1H17V3H7V1H5V3H4A2.006,2.006,0,0,0,2,5V21a2.006,2.006,0,0,0,2,2H20a2.006,2.006,0,0,0,2-2V5A2.006,2.006,0,0,0,20,3Zm0,18H4V10H20ZM20,8H4V5H20Z"/>
</svg>

<svg xmlns="http://www.w3.org/2000/svg" height="24" viewBox="0 0 24 24" width="24"><path d="M0 0h24v24H0V0z" fill="none"/><path d="M20 3h-1V1h-2v2H7V1H5v2H4c-1.1 0-2 .9-2 2v16c0 1.1.9 2 2 2h16c1.1 0 2-.9 2-2V5c0-1.1-.9-2-2-2zm0 18H4V10h16v11zm0-13H4V5h16v3z"/></svg>
